X:40
T:The Gals O' Dublin Town (a)
M:2/4
L:1/16
Q:1/4=3D120
K:C
C2D2|\
E2E2 E2E2|E2G2 G2E2|E2D2 D2E2|D6 GG|
A2F2 ccc2|A2G2 E2C2|DDC2 CCD2|C6 G2|
c6     c2|B6     GG|A3B (3c2B2A2|G6 G2|
c4   c3 c|AAG2 E2CC|D3C  C3 D|C4||
